flaticon/army-badges/medal-37.svg

<svg xmlns="http://www.w3.org/2000/svg" width="32" height="32" viewBox="0 0 24 24">
    <path d="M 10.480469 15.359375 C 10.398438 15.480469 10.359375 15.601562 10.398438 15.71875 L 10.441406 15.800781 C 10.601562 16.398438 10.679688 17 10.761719 17.558594 C 10.359375 17.519531 10 17.441406 9.640625 17.359375 L 8.878906 17.199219 C 8.761719 17.160156 8.640625 17.199219 8.558594 17.28125 C 8.441406 17.359375 8.398438 17.480469 8.398438 17.601562 L 8.398438 20 C 8.398438 20.121094 8.441406 20.238281 8.558594 20.320312 C 8.640625 20.398438 8.761719 20.441406 8.878906 20.398438 L 9.679688 20.28125 C 10 20.199219 10.398438 20.121094 10.761719 20.078125 C 10.679688 20.441406 10.640625 20.839844 10.558594 21.160156 L 10.398438 21.921875 C 10.398438 22.039062 10.398438 22.121094 10.480469 22.238281 C 10.558594 22.359375 10.679688 22.398438 10.800781 22.398438 L 13.199219 22.398438 C 13.320312 22.398438 13.441406 22.359375 13.519531 22.238281 C 13.601562 22.160156 13.640625 22.039062 13.601562 21.921875 L 13.441406 21.160156 C 13.359375 20.800781 13.28125 20.398438 13.238281 20.039062 C 13.800781 20.078125 14.398438 20.199219 15 20.359375 L 15.078125 20.398438 C 15.199219 20.441406 15.359375 20.398438 15.441406 20.320312 C 15.558594 20.238281 15.601562 20.121094 15.601562 20 L 15.601562 17.601562 C 15.601562 17.480469 15.558594 17.359375 15.441406 17.28125 C 15.320312 17.199219 15.199219 17.160156 15.078125 17.199219 L 15 17.238281 C 14.398438 17.398438 13.800781 17.480469 13.238281 17.558594 C 13.28125 17 13.398438 16.441406 13.558594 15.800781 L 13.601562 15.71875 C 13.601562 15.601562 13.601562 15.480469 13.519531 15.359375 C 13.441406 15.238281 13.320312 15.199219 13.199219 15.199219 L 10.800781 15.199219 C 10.679688 15.199219 10.558594 15.28125 10.480469 15.359375 Z M 11.28125 16.039062 L 12.679688 16.039062 C 12.519531 16.71875 12.441406 17.398438 12.398438 18 C 12.398438 18.121094 12.480469 18.160156 12.558594 18.238281 C 12.640625 18.320312 12.761719 18.359375 12.878906 18.359375 C 13.480469 18.320312 14.160156 18.238281 14.839844 18.078125 L 14.839844 19.480469 C 14.160156 19.320312 13.480469 19.238281 12.878906 19.199219 C 12.761719 19.199219 12.640625 19.238281 12.558594 19.320312 C 12.480469 19.398438 12.441406 19.519531 12.441406 19.640625 C 12.480469 20.199219 12.558594 20.800781 12.679688 21.320312 L 12.71875 21.601562 L 11.28125 21.601562 L 11.359375 21.398438 C 11.441406 20.878906 11.558594 20.28125 11.601562 19.71875 C 11.601562 19.601562 11.558594 19.480469 11.480469 19.398438 C 11.398438 19.320312 11.28125 19.28125 11.160156 19.28125 C 10.601562 19.320312 10 19.398438 9.480469 19.519531 L 9.199219 19.558594 L 9.199219 18.121094 L 9.441406 18.199219 C 10 18.28125 10.558594 18.398438 11.121094 18.441406 C 11.238281 18.441406 11.359375 18.398438 11.441406 18.320312 C 11.519531 18.238281 11.558594 18.121094 11.558594 18 C 11.519531 17.398438 11.441406 16.71875 11.28125 16.039062 Z M 11.28125 16.039062"/>
    <path d="M 18.519531 7.519531 L 16.160156 0.800781 C 16 0.320312 15.558594 0 15.039062 0 L 8.800781 0 C 8.398438 0 8.039062 0.199219 7.839844 0.519531 C 7.710938 0.695312 7.636719 0.890625 7.621094 1.101562 L 5.480469 7.558594 C 5.28125 8.160156 5.601562 8.839844 6.199219 9.078125 L 7.757812 9.65625 C 7.773438 9.664062 7.785156 9.671875 7.800781 9.679688 L 9.09375 10.148438 L 9.25 10.207031 C 9.28125 10.21875 9.304688 10.226562 9.324219 10.234375 L 11.601562 11.070312 L 11.601562 11.25 C 10.910156 11.429688 10.398438 12.058594 10.398438 12.800781 C 10.398438 13.160156 10.519531 13.488281 10.71875 13.757812 C 8.460938 14.324219 6.800781 16.363281 6.800781 18.800781 C 6.800781 21.679688 9.121094 24 12 24 C 14.878906 24 17.199219 21.679688 17.199219 18.800781 C 17.199219 16.363281 15.539062 14.324219 13.28125 13.757812 C 13.480469 13.488281 13.601562 13.160156 13.601562 12.800781 C 13.601562 12.058594 13.089844 11.429688 12.398438 11.25 L 12.398438 11.109375 L 17.800781 9.039062 C 18.398438 8.800781 18.71875 8.121094 18.519531 7.519531 Z M 12.519531 0.800781 L 15.480469 9.078125 L 14.800781 9.320312 L 11.761719 0.800781 Z M 8.800781 0.800781 L 10.925781 0.800781 L 14.113281 9.613281 L 12.238281 10.320312 L 8.441406 1.359375 C 8.417969 1.328125 8.40625 1.292969 8.398438 1.253906 C 8.398438 1.234375 8.398438 1.214844 8.398438 1.199219 C 8.398438 1.191406 8.398438 1.183594 8.398438 1.171875 C 8.40625 1.105469 8.4375 1.042969 8.480469 1 C 8.558594 0.878906 8.679688 0.800781 8.800781 0.800781 Z M 6.238281 7.800781 L 8 2.441406 L 9.097656 5.011719 L 7.734375 8.789062 L 6.480469 8.320312 C 6.28125 8.238281 6.160156 8 6.238281 7.800781 Z M 8.933594 9.238281 L 8.484375 9.070312 L 9.558594 6.121094 L 9.960938 7.078125 L 9.160156 9.320312 Z M 9.875 9.59375 L 10.414062 8.089844 L 11.28125 10.121094 Z M 16.398438 18.800781 C 16.398438 21.238281 14.441406 23.199219 12 23.199219 C 9.558594 23.199219 7.601562 21.199219 7.601562 18.800781 C 7.601562 16.398438 9.558594 14.398438 12 14.398438 C 14.441406 14.398438 16.398438 16.359375 16.398438 18.800781 Z M 12.800781 12.800781 C 12.800781 13.238281 12.441406 13.601562 12 13.601562 C 11.558594 13.601562 11.199219 13.238281 11.199219 12.800781 C 11.199219 12.503906 11.363281 12.246094 11.601562 12.109375 L 11.601562 12.398438 C 11.601562 12.640625 11.761719 12.800781 12 12.800781 C 12.238281 12.800781 12.398438 12.640625 12.398438 12.398438 L 12.398438 12.109375 C 12.636719 12.246094 12.800781 12.503906 12.800781 12.800781 Z M 17.558594 8.320312 L 16.238281 8.816406 L 13.347656 0.800781 L 15.039062 0.800781 C 15.199219 0.800781 15.359375 0.921875 15.398438 1.078125 L 17.800781 7.800781 C 17.878906 8 17.761719 8.238281 17.558594 8.320312 Z M 17.558594 8.320312"/>
</svg>

<svg xmlns="http://www.w3.org/2000/svg" width="32" height="32" viewBox="0 0 24 24">
    <path d="M10.48 15.36c-.082.12-.12.242-.082.359l.043.082c.16.597.239 1.199.32 1.758a8.68 8.68 0 0 1-1.12-.2l-.762-.16a.313.313 0 0 0-.32.082.368.368 0 0 0-.16.32V20c0 .121.042.238.16.32.082.078.203.121.32.078l.8-.117c.321-.082.72-.16 1.083-.203-.082.363-.121.762-.203 1.082l-.16.762c0 .117 0 .2.081.316.079.121.2.16.32.16h2.4c.12 0 .241-.039.32-.16.082-.078.12-.199.082-.316l-.16-.762c-.083-.36-.16-.762-.204-1.12.563.038 1.16.16 1.762.32l.078.038c.121.043.281 0 .363-.078.118-.082.16-.199.16-.32v-2.398a.368.368 0 0 0-.16-.32c-.12-.083-.242-.122-.363-.083l-.078.04c-.602.16-1.2.241-1.762.32.043-.559.16-1.118.32-1.758l.044-.082c0-.117 0-.239-.082-.36-.079-.12-.2-.16-.32-.16h-2.4c-.12 0-.241.082-.32.16zm.801.68h1.399c-.16.679-.239 1.358-.282 1.96 0 .121.082.16.16.238a.455.455 0 0 0 .32.121c.602-.039 1.282-.12 1.962-.28v1.401a12.03 12.03 0 0 0-1.961-.28.455.455 0 0 0-.32.12.456.456 0 0 0-.118.32c.04.56.118 1.16.239 1.68l.039.282H11.28l.078-.204c.082-.52.2-1.117.243-1.68a.473.473 0 0 0-.122-.32.463.463 0 0 0-.32-.117c-.558.04-1.16.117-1.68.239l-.28.039V18.12l.241.078c.559.082 1.118.2 1.68.242a.473.473 0 0 0 .32-.12.463.463 0 0 0 .118-.321 12.004 12.004 0 0 0-.278-1.96zm0 0"/>
    <path d="M18.52 7.52L16.16.8C16 .32 15.56 0 15.04 0H8.8c-.402 0-.76.2-.96.52a1.11 1.11 0 0 0-.219.582l-2.14 6.457a1.24 1.24 0 0 0 .718 1.52l1.559.577.043.024 1.293.468.156.059.074.027 2.278.836v.18a1.608 1.608 0 0 0-1.204 1.55c0 .36.122.688.32.958A5.187 5.187 0 0 0 6.802 18.8 5.19 5.19 0 0 0 12 24a5.19 5.19 0 0 0 5.2-5.2 5.187 5.187 0 0 0-3.919-5.042c.2-.27.32-.598.32-.957 0-.742-.511-1.371-1.203-1.551v-.14l5.403-2.07a1.24 1.24 0 0 0 .719-1.52zm-6-6.72l2.96 8.278-.68.242L11.763.8zM8.8.8h2.126l3.187 8.813-1.875.707-3.797-8.96a.251.251 0 0 1-.043-.106v-.055-.027A.297.297 0 0 1 8.48 1c.079-.121.2-.2.32-.2zm-2.562 7L8 2.442l1.098 2.57L7.734 8.79 6.48 8.32c-.199-.082-.32-.32-.242-.52zm2.696 1.438l-.45-.168L9.56 6.121l.402.957-.8 2.242zm.941.356l.54-1.504.866 2.031zm6.523 9.207A4.385 4.385 0 0 1 12 23.199c-2.441 0-4.398-2-4.398-4.398 0-2.403 1.957-4.403 4.398-4.403a4.386 4.386 0 0 1 4.398 4.403zm-3.597-6c0 .437-.36.8-.801.8a.798.798 0 1 1-.398-1.492v.29c0 .242.16.402.398.402.238 0 .398-.16.398-.403v-.289a.798.798 0 0 1 .403.692zm4.758-4.48l-1.32.495L13.347.801h1.691c.16 0 .32.12.36.277L17.8 7.801c.078.199-.04.437-.242.52zm0 0"/>
</svg>
